X: 95
M: C
L: 1/8
K: Em
(A>B) | c3 c (B>AB) d | (e>dc) B A2 (EF) |
(BA) (cd) | (ed) (cB) A2 (EF) | G2 (ge) (dB) (AB) |
(a>gf) e d3 B | (e>fg) a (b>g) (a>b) |
(g>e) (f>g) e2 (ga) | (b>a) (gb) (a>g) (e>a) |
(g<e) (dB) {B}Hg3 {a g f}e | (dB) (AG) (Ac) (BA) |

